X:571
T:Oh Sheela My Love.
T:a .si.gi.e mo .gra.d.
R:jig
N:"Gaily." "Collected from Hartnett."
B:O'Neill's 571
Z:Transcribed by J.B. Walsh walsh@math.ubc.ca
M:6/8
L:1/8
<START_ANN> %Q:90 <END_ANN>
K:Em
D|DEG A2A|BAG GAB|cdc B2 A|AGE E2 G|
DEG A2 A|BAG GAB|cde B2 A|AGE E2||
c/d/|efe d2c|BGE GAB|Be.e d2 c|BGB c2 d|
efe ed2c|cBGE GAB|cdc B2 A|AGE E2||
